X:18519
T:Warterloo Dance,The. GS.098
T:Waterloo Dance,The. GS.098
M:2/4
L:1/8
Q:200
S:George Spencer m/s, Leeds,1831
R:Misc.
O:England
A:Leeds
H:1831
Z:vmp.Cherri Graebe
K:D major
"qu"A/G/ | FdAd | f>e dd | e2 d/c/B/A/ | dfA A/G/ | FdAd | f>e dd | e2 d
/c/B/A
/ | dfd |!| c/d/ |
ecaf | e/^d/e/c/ AA | ^G/A/B/c/ de | d2 c c/d/ | ecaf | e/^d/e/c/ AA |
  ^G/A/B/c/ dA | AcA |!|
f/g/ | a3 f | bagf | edef | defa | a3f | bagf | edef | dfd ||


